icons/device/video-slash.svg

<svg width="32" height="32" viewBox="0 0 32 32" fill="none" xmlns="http://www.w3.org/2000/svg">
<path fill-rule="evenodd" clip-rule="evenodd" d="M28.793 30.2071L22.9642 24.3783C22.7873 25.302 21.9751 26 20.9999 26H3.99991C2.89534 26 1.99991 25.1045 1.99991 24V7.99998C1.99991 6.89541 2.89534 5.99998 3.99991 5.99998H4.58585L1.79297 3.20709L3.20718 1.79288L30.2072 28.7929L28.793 30.2071ZM6.58585 7.99998L20.9999 22.414V24H3.99991V7.99998H6.58585ZM12 8H21V13.5142C21 14.5309 22.1492 15.1223 22.9765 14.5314L28 10.9432V23H30V9.4858C30 8.46909 28.8508 7.87767 28.0235 8.46863L23 12.0568V7.5C23 6.67157 22.3284 6 21.5 6H12V8Z" fill="black"/>
</svg>

<svg viewBox="0 0 32 32" xmlns="http://www.w3.org/2000/svg"><path fill-rule="evenodd" d="M28.793 30.207l-5.829-5.829A2 2 0 0121 26H4a2 2 0 01-2-2V8a2 2 0 012-2h.586L1.793 3.207l1.414-1.414 27 27-1.414 1.414zM6.586 8L21 22.414V24H4V8h2.586zM12 8h9v5.514a1.25 1.25 0 001.977 1.017L28 10.943V23h2V9.486a1.25 1.25 0 00-1.977-1.017L23 12.057V7.5A1.5 1.5 0 0021.5 6H12v2z"/></svg>
